icon.svg

<?xml version="1.0" encoding="UTF-8" standalone="no"?>
<svg
   width="259"
   height="260"
   xml:space="preserve"
   overflow="hidden"
   version="1.1"
   id="svg10"
   sodipodi:docname="icon.svg"
   inkscape:version="1.3.2 (091e20e, 2023-11-25, custom)"
   xmlns:inkscape="http://www.inkscape.org/namespaces/inkscape"
   xmlns:sodipodi="http://sodipodi.sourceforge.net/DTD/sodipodi-0.dtd"
   xmlns="http://www.w3.org/2000/svg"
   xmlns:svg="http://www.w3.org/2000/svg"><sodipodi:namedview
     id="namedview10"
     pagecolor="#ffffff"
     bordercolor="#000000"
     borderopacity="0.25"
     inkscape:showpageshadow="2"
     inkscape:pageopacity="0.0"
     inkscape:pagecheckerboard="0"
     inkscape:deskcolor="#d1d1d1"
     inkscape:zoom="0.48938224"
     inkscape:cx="248.27219"
     inkscape:cy="197.18738"
     inkscape:window-width="1920"
     inkscape:window-height="974"
     inkscape:window-x="-11"
     inkscape:window-y="-11"
     inkscape:window-maximized="1"
     inkscape:current-layer="svg10" /><defs
     id="defs1"><filter
       id="fx0"
       x="-10%"
       y="-10%"
       width="120%"
       height="120%"
       filterUnits="userSpaceOnUse"
       primitiveUnits="userSpaceOnUse"><feComponentTransfer
         color-interpolation-filters="sRGB"
         id="feComponentTransfer1"><feFuncR
           type="discrete"
           tableValues="0 0"
           id="feFuncR1" /><feFuncG
           type="discrete"
           tableValues="0 0"
           id="feFuncG1" /><feFuncB
           type="discrete"
           tableValues="0 0"
           id="feFuncB1" /><feFuncA
           type="linear"
           slope="0.4"
           intercept="0"
           id="feFuncA1" /></feComponentTransfer><feGaussianBlur
         stdDeviation="6.11111 6.11111"
         id="feGaussianBlur1" /></filter><clipPath
       id="clip1"><rect
         x="1400"
         y="520"
         width="259"
         height="260"
         id="rect1" /></clipPath></defs><g
     clip-path="url(#clip1)"
     transform="matrix(1.166924,0,0,1.166924,-1643.6892,-616.55034)"
     id="g10"><g
       filter="url(#fx0)"
       transform="translate(1399,519)"
       id="g6"><g
         id="g5"><path
           d="M 0,0 98.1136,94.7079"
           stroke="#d40032"
           stroke-width="2"
           stroke-linejoin="round"
           stroke-miterlimit="10"
           fill="none"
           fill-rule="evenodd"
           transform="matrix(1,0,0,-1,79.7225,176.431)"
           id="path1" /><path
           d="m 22.2227,130.723 c 0,-59.9233 48.3533,-108.5003 108.0003,-108.5003 59.647,0 108,48.577 108,108.5003 0,59.922 -48.353,108.5 -108,108.5 -59.647,0 -108.0003,-48.578 -108.0003,-108.5 z"
           stroke="#d40032"
           stroke-width="5"
           stroke-miterlimit="8"
           fill="none"
           fill-rule="evenodd"
           id="path2" /><path
           d="m 22.2227,130.223 c 0,-30.3761 47.9055,-55.0004 107.0003,-55.0004 59.094,0 107,24.6243 107,55.0004 0,30.375 -47.906,55 -107,55 -59.0948,0 -107.0003,-24.625 -107.0003,-55 z"
           stroke="#d40032"
           stroke-width="5"
           stroke-miterlimit="8"
           fill="none"
           fill-rule="evenodd"
           id="path3" /><path
           d="m 74.2225,131.723 c 0,-59.3709 24.6244,-107.5003 55.0005,-107.5003 30.375,0 55,48.1294 55,107.5003 0,59.37 -24.625,107.5 -55,107.5 -30.3761,0 -55.0005,-48.13 -55.0005,-107.5 z"
           stroke="#d40032"
           stroke-width="5"
           stroke-miterlimit="8"
           fill="none"
           fill-rule="evenodd"
           id="path4" /><path
           d="M 80.7789,180.968 C 38.9661,139.155 26.8967,83.4325 53.8212,56.508 80.7457,29.5835 136.468,41.6529 178.281,83.4657 220.094,125.279 232.163,181.001 205.239,207.926 178.314,234.85 122.592,222.781 80.7789,180.968 Z"
           stroke="#d40032"
           stroke-width="4.58333"
           stroke-miterlimit="8"
           fill="none"
           fill-rule="evenodd"
           id="path5" /></g></g><path
       d="M 0,0 98.1136,94.7079"
       stroke="#d40032"
       stroke-width="2.29167"
       stroke-linejoin="round"
       stroke-miterlimit="10"
       fill="none"
       fill-rule="evenodd"
       transform="matrix(1,0,0,-1,1469,685.708)"
       id="path6" /><path
       d="m 1411.5,640 c 0,-59.923 48.35,-108.5 108,-108.5 59.65,0 108,48.577 108,108.5 0,59.923 -48.35,108.5 -108,108.5 -59.65,0 -108,-48.577 -108,-108.5 z"
       stroke="#d40032"
       stroke-width="4.58333"
       stroke-miterlimit="8"
       fill="none"
       fill-rule="evenodd"
       id="path7" /><path
       d="m 1411.5,639.5 c 0,-30.376 47.91,-55 107,-55 59.09,0 107,24.624 107,55 0,30.376 -47.91,55 -107,55 -59.09,0 -107,-24.624 -107,-55 z"
       stroke="#d40032"
       stroke-width="4.58333"
       stroke-miterlimit="8"
       fill="none"
       fill-rule="evenodd"
       id="path8" /><path
       d="m 1463.5,641 c 0,-59.371 24.62,-107.5 55,-107.5 30.38,0 55,48.129 55,107.5 0,59.37 -24.62,107.5 -55,107.5 -30.38,0 -55,-48.13 -55,-107.5 z"
       stroke="#d40032"
       stroke-width="4.58333"
       stroke-miterlimit="8"
       fill="none"
       fill-rule="evenodd"
       id="path9" /><path
       d="m 1470.06,690.245 c -41.82,-41.813 -53.89,-97.535 -26.96,-124.46 26.92,-26.924 82.65,-14.855 124.46,26.958 41.81,41.813 53.88,97.536 26.96,124.46 -26.93,26.925 -82.65,14.855 -124.46,-26.958 z"
       stroke="#d40032"
       stroke-width="4.58333"
       stroke-miterlimit="8"
       fill="none"
       fill-rule="evenodd"
       id="path10" /></g></svg>

<svg width="259" height="260" xmlns="http://www.w3.org/2000/svg" xmlns:xlink="http://www.w3.org/1999/xlink" xml:space="preserve" overflow="hidden"><defs><filter id="fx0" x="-10%" y="-10%" width="120%" height="120%" filterUnits="userSpaceOnUse" primitiveUnits="userSpaceOnUse"><feComponentTransfer color-interpolation-filters="sRGB"><feFuncR type="discrete" tableValues="0 0"/><feFuncG type="discrete" tableValues="0 0"/><feFuncB type="discrete" tableValues="0 0"/><feFuncA type="linear" slope="0.4" intercept="0"/></feComponentTransfer><feGaussianBlur stdDeviation="6.11111 6.11111"/></filter><clipPath id="clip1"><rect x="1400" y="520" width="259" height="260"/></clipPath></defs><g clip-path="url(#clip1)" transform="translate(-1400 -520)"><g filter="url(#fx0)" transform="translate(1399 519)"><g><path d="M0 0 98.1136 94.7079" stroke="#D40032" stroke-width="2" stroke-linejoin="round" stroke-miterlimit="10" fill="none" fill-rule="evenodd" transform="matrix(1 0 0 -1 79.7225 176.431)"/><path d="M22.2227 130.723C22.2227 70.7997 70.576 22.2227 130.223 22.2227 189.87 22.2227 238.223 70.7997 238.223 130.723 238.223 190.645 189.87 239.223 130.223 239.223 70.576 239.223 22.2227 190.645 22.2227 130.723Z" stroke="#D40032" stroke-width="5" stroke-miterlimit="8" fill="none" fill-rule="evenodd"/><path d="M22.2227 130.223C22.2227 99.8469 70.1282 75.2226 129.223 75.2226 188.317 75.2226 236.223 99.8469 236.223 130.223 236.223 160.598 188.317 185.223 129.223 185.223 70.1282 185.223 22.2227 160.598 22.2227 130.223Z" stroke="#D40032" stroke-width="5" stroke-miterlimit="8" fill="none" fill-rule="evenodd"/><path d="M74.2225 131.723C74.2225 72.3521 98.8469 24.2227 129.223 24.2227 159.598 24.2227 184.223 72.3521 184.223 131.723 184.223 191.093 159.598 239.223 129.223 239.223 98.8469 239.223 74.2225 191.093 74.2225 131.723Z" stroke="#D40032" stroke-width="5" stroke-miterlimit="8" fill="none" fill-rule="evenodd"/><path d="M80.7789 180.968C38.9661 139.155 26.8967 83.4325 53.8212 56.508 80.7457 29.5835 136.468 41.6529 178.281 83.4657 220.094 125.279 232.163 181.001 205.239 207.926 178.314 234.85 122.592 222.781 80.7789 180.968Z" stroke="#D40032" stroke-width="4.58333" stroke-miterlimit="8" fill="none" fill-rule="evenodd"/></g></g><path d="M0 0 98.1136 94.7079" stroke="#D40032" stroke-width="2.29167" stroke-linejoin="round" stroke-miterlimit="10" fill="none" fill-rule="evenodd" transform="matrix(1 0 0 -1 1469 685.708)"/><path d="M1411.5 640C1411.5 580.077 1459.85 531.5 1519.5 531.5 1579.15 531.5 1627.5 580.077 1627.5 640 1627.5 699.923 1579.15 748.5 1519.5 748.5 1459.85 748.5 1411.5 699.923 1411.5 640Z" stroke="#D40032" stroke-width="4.58333" stroke-miterlimit="8" fill="none" fill-rule="evenodd"/><path d="M1411.5 639.5C1411.5 609.124 1459.41 584.5 1518.5 584.5 1577.59 584.5 1625.5 609.124 1625.5 639.5 1625.5 669.876 1577.59 694.5 1518.5 694.5 1459.41 694.5 1411.5 669.876 1411.5 639.5Z" stroke="#D40032" stroke-width="4.58333" stroke-miterlimit="8" fill="none" fill-rule="evenodd"/><path d="M1463.5 641C1463.5 581.629 1488.12 533.5 1518.5 533.5 1548.88 533.5 1573.5 581.629 1573.5 641 1573.5 700.37 1548.88 748.5 1518.5 748.5 1488.12 748.5 1463.5 700.37 1463.5 641Z" stroke="#D40032" stroke-width="4.58333" stroke-miterlimit="8" fill="none" fill-rule="evenodd"/><path d="M1470.06 690.245C1428.24 648.432 1416.17 592.71 1443.1 565.785 1470.02 538.861 1525.75 550.93 1567.56 592.743 1609.37 634.556 1621.44 690.279 1594.52 717.203 1567.59 744.128 1511.87 732.058 1470.06 690.245Z" stroke="#D40032" stroke-width="4.58333" stroke-miterlimit="8" fill="none" fill-rule="evenodd"/></g></svg>
